X: 13243
T: Fisherrow
R: polka
M: 2/4
K: Dmajor
M:4/4
(f>e)|d2 A2 B>AG>F|E2 e2 e3 f|g2 (f>d) e>dc>B|A2 a2 a>gf>e|
d2 A2 B>AG>F|E2 e2 e3 f|g>fe>d c>AB>c|d2 f2 d4||
B2 e2 d2 B2|A>F(A>d) f4|e>fg>f e>dc>e|d>ef>g a2 (3AAA|
B2 e2 d2 B2|A>F(A>d) f4|e>f^g>f e>dc>B|A2 a2 a>gf>e|
d2 A2 B>AG>F|E2 e2 e3 f|g2 (f>d) e>dc>B|A2 a2 a>gf>e|
d2 A2 B>AG>F|E2 e2 e3 f|g>fe>d c>AB>c|d2 f2 d4||
K:G
B4 A>G(A>B) G2 d2 d4|e4 f>=f(^f>a)|(g2 d2) d4|
e4 a>g(f>e)|d2 g2 B2 (e>d)|^c2 (c>B) A>ce>g|e2 d2 d>cB>A|
B4 A>G(A>B)|G2 d2 d4|e4 f>=f(^f>a)|(g2 d2) d4|
e4 a>g(f>e)|d2 g2 B2 (e>d)|c>BA>G F>GA>F|G2 B2 G2||
K:D
(f>e)|d2 A2 B>AG>F|E2 e2 e3 f|g2 (f>d) e>dc>B|A2 a2 a>gf>e|
d2 A2 B>AG>F|E2 e2 e3 f|g>fe>d c>AB>c|d2 f2 d3||

